assets/sonr-icons/external-link.svg

<svg xmlns="http://www.w3.org/2000/svg" width="24" height="24" fill="none" viewBox="0 0 24 24"><path fill="#000" d="M18 10.82C17.448 10.82 17 11.268 17 11.82V19C17 19.552 16.552 20 16 20H5C4.448 20 4 19.552 4 19V8C4 7.448 4.448 7 5 7H12.18C12.732 7 13.18 6.552 13.18 6C13.18 5.448 12.732 5 12.18 5H5C3.343 5 2 6.343 2 8V19C2 20.657 3.343 22 5 22H16C17.657 22 19 20.657 19 19V11.82C19 11.268 18.552 10.82 18 10.82ZM21.92 2.62C21.816 2.375 21.625 2.183 21.387 2.082L21.38 2.08C21.268 2.031 21.138 2.002 21 2H14.999C14.447 2 13.999 2.448 13.999 3C13.999 3.552 14.447 4 14.999 4H18.589L8.289 14.29C8.106 14.472 7.994 14.723 7.994 15C7.994 15.277 8.107 15.529 8.289 15.71C8.471 15.893 8.722 16.005 8.999 16.005C9.276 16.005 9.528 15.892 9.709 15.71L19.999 5.41V9C19.999 9.552 20.447 10 20.999 10C21.551 10 21.999 9.552 21.999 9V3C21.998 2.862 21.968 2.732 21.917 2.614L21.92 2.62Z"/></svg>

<svg xmlns="http://www.w3.org/2000/svg" width="24" height="24" fill="none"><path fill="currentColor" d="M18 10.82a1 1 0 0 0-1 1V19a1 1 0 0 1-1 1H5a1 1 0 0 1-1-1V8a1 1 0 0 1 1-1h7.18a1 1 0 0 0 0-2H5a3 3 0 0 0-3 3v11a3 3 0 0 0 3 3h11a3 3 0 0 0 3-3v-7.18a1 1 0 0 0-1-1m3.92-8.2a1 1 0 0 0-.533-.538l-.007-.002A1 1 0 0 0 21 2h-6.001a1 1 0 0 0 0 2h3.59l-10.3 10.29a1 1 0 0 0 0 1.42 1 1 0 0 0 1.42 0l10.29-10.3V9a1 1 0 0 0 2 0V3a1 1 0 0 0-.082-.386z"/></svg>
